lib/assets/icons/svg/outlined-finance-creditcard.svg

<svg viewBox="0 0 24 24" xmlns="http://www.w3.org/2000/svg">
  <path  d="M 4.6 19.42 C 3.447 19.404 2.516 18.473 2.5 17.32 L 2.5 9.022 C 2.499 9.007 2.499 8.991 2.5 8.976 L 2.5 6.6 C 2.516 5.447 3.447 4.516 4.6 4.5 L 19.4 4.5 C 20.553 4.516 21.484 5.447 21.5 6.6 L 21.5 17.32 C 21.428 18.476 20.487 19.386 19.33 19.42 Z M 19.4 5.5 L 4.6 5.5 C 3.995 5.505 3.505 5.995 3.5 6.6 L 3.5 8.5 L 20.39 8.5 C 20.428 8.5 20.465 8.504 20.5 8.512 L 20.5 6.6 C 20.495 5.995 20.005 5.505 19.4 5.5 Z M 3.5 17.32 C 3.505 17.925 3.995 18.415 4.6 18.42 L 19.31 18.42 C 19.94 18.401 20.454 17.909 20.5 17.28 L 20.5 9.488 C 20.464 9.496 20.427 9.5 20.39 9.5 L 3.5 9.5 Z M 18.3 11.9 L 5.7 11.9 C 5.426 11.895 5.205 11.674 5.2 11.4 C 5.2 11.124 5.424 10.9 5.7 10.9 L 18.3 10.9 C 18.576 10.9 18.8 11.124 18.8 11.4 C 18.795 11.674 18.574 11.895 18.3 11.9 Z M 12.08 14.38 L 5.36 14.38 C 4.975 14.38 4.735 13.963 4.927 13.63 C 5.016 13.475 5.181 13.38 5.36 13.38 L 12.08 13.38 C 12.465 13.38 12.705 13.797 12.513 14.13 C 12.424 14.285 12.259 14.38 12.08 14.38 Z"/>
</svg>

<svg xmlns="http://www.w3.org/2000/svg" viewBox="0 0 24 24"><path d="M4.6 19.42a2.13 2.13 0 0 1-2.1-2.1V9.022a.353.353 0 0 1 0-.046V6.6a2.13 2.13 0 0 1 2.1-2.1h14.8a2.13 2.13 0 0 1 2.1 2.1v10.72a2.24 2.24 0 0 1-2.17 2.1zM19.4 5.5H4.6a1.11 1.11 0 0 0-1.1 1.1v1.9h16.89c.038 0 .075.004.11.012V6.6a1.11 1.11 0 0 0-1.1-1.1zM3.5 17.32a1.11 1.11 0 0 0 1.1 1.1h14.71a1.23 1.23 0 0 0 1.19-1.14V9.488a.508.508 0 0 1-.11.012H3.5zm14.8-5.42H5.7a.51.51 0 0 1-.5-.5.5.5 0 0 1 .5-.5h12.6a.5.5 0 0 1 .5.5.51.51 0 0 1-.5.5zm-6.22 2.48H5.36a.5.5 0 0 1 0-1h6.72a.5.5 0 0 1 0 1z"/></svg>
